!!!!SEGMENT: pl-wtm--r-283-m_moniuszko-stanislaw--modlitwa-panska.krn
!!!cenid: 18xx:1664
!!!COM: Moniuszko, Stanisław
!!!COM-rismID: pe30008351
!!!CDT: 1819/05/05-1872/06/04
!!!CNT: Polish
!!!OTL: Modlitwa Pańska
!!!PDT: 1867
!!!AGN: Secular
!!!SMS-siglum: PL-Wtm
!!!SMS-shelfmark: R 283/M
!!!SMS-shelfwork: W
!!!SMS-variant:
!!!SMS-altvar:
!!!NIFC-rismSourceID: 1001090515
!!!NIFC-rismChildID: 1001090515
!!!NIFC-islandoraID:
!!!URL-pdf-islandora:
!!!URL-scan:
!!!ONB-nifc:
!!!AIN: 1 organ 1 vox
!!!key:
**kern	**kern	**fing	**dynam	**kern	**text	**text	**dynam
*part2	*part2	*	*part2	*part1	*part1	*part1	*part1
*staff3	*staff2	*	*	*staff1	*staff1	*staff1	*
*Iorgan	*Iempty	*	*	*Ivox	*	*	*
*I"[Organ]	*[Organ]	*	*	*I"[Voice]	*	*	*
*I'[org]	*[org]	*	*	*I'[V]	*	*	*
*clefF4	*clefG2	*	*	*clefG2	*	*	*
*k[f#c#g#d#a#]	*k[f#c#g#d#a#]	*	*	*k[f#c#g#d#a#]	*	*	*
*B:	*B:	*	*	*B:	*	*	*
*M4/4	*M4/4	*	*	*M4/4	*	*	*
*met(c)	*met(c)	*	*	*met(c)	*	*	*
*>[A,B,B1,B,B1,B,B3]	*>[A,B,B1,B,B1,B,B3]	*	*	*>[A,B,B1,B,B1,B,B3]	*	*	*
=1	=1	=1	=1	=1	=1	=1	=1
*>A	*>A	*	*	*>A	*	*	*
*^	*	*	*	*	*	*	*
*2\right	*2\right	*2\right	*	*	*	*	*	*
!	!	!LO:TX:a:i:t=Lento.	!	!	!	!	!	!
!	!	!	!	!	!LO:TX:a:i:t=„Ojcze nasz” [space] wiérsz J. Moroz.	!	!	!
!	!	!LO:TX:a:t=P:problem=w źródle znaki przykluczowe f# cc# g# dd# a#	!	!	!LO:TX:a:t=P:problem=w źródle znaki przykluczowe f# cc# g# dd# a#	!	!	!
!	!	!	!	!LO:DY:b:rj	!	!	!	!
2d#\	1rGG	(>2dd#\	.	p	1r	.	.	.
!LO:TX:t=P:all\right:problem	!	!	!	!	!	!	!	!
4B\	.	4b/	.	.	.	.	.	.
4G#\	.	4g#/	.	.	.	.	.	.
=2	=2	=2	=2	=2	=2	=2	=2	=2
*	*	*^	*	*	*	*	*	*
!	!LO:N:vis=1	!	!	!	!	!	!	!	!
2F#/	2rGG	1f#	2rB	.	.	1r	.	.	.
2C#/	2FF#\	.	2e 2A#\)	.	.	.	.	.	.
=3!|:	=3!|:	=3!|:	=3!|:	=3!|:	=3!|:	=3!|:	=3!|:	=3!|:	=3!|:
*>B	*>B	*>B	*>B	*	*	*>B	*	*	*
*	*^	*	*	*	*	*	*	*	*
!	!	!	!LO:TX:b:i:t=sempre colla parte.	!LO:TX:t=P:all\right:problem	!	!	!LO:TX:a:i:t=ad libit. ma molto largo.	!	!	!
2ryy	4BB\	1BB	1f# 1d#	4B\	.	.	4f#/	W cię-	Za-	.
.	4rCC	.	.	4rB	.	.	8g#/	-żkiej	-wsze	.
.	.	.	.	.	.	.	8f#/	nie-	u-	.
!	!LO:N:vis=2.	!	!	!	!	!	!LO:TX:t=P:problem=all\right&colon; global	!	!	!
4rB	2rEE	.	.	2rd	.	.	4.b\	-do-	-ło-	.
[>4F#/	.	.	.	.	.	.	.	.	.	.
.	.	.	.	.	.	.	8b\	-li	-mni	.
*	*v	*v	*	*	*	*	*	*	*	*
=4	=4	=4	=4	=4	=4	=4	=4	=4	=4
1F#\]	2C#\	2f#/	1e	.	.	8b\	któ-	z wła-	.
.	.	.	.	.	.	8a#\	-rą	-snej	.
.	.	.	.	.	.	8.a#\	dziś	my	.
.	.	.	.	.	.	16b\	po-	przy-	.
.	2AA#\	2cc#/	.	.	.	4cc#\	-no-	-czy-	.
.	.	.	.	.	.	8f#/	-szę	-ny	.
.	.	.	.	.	.	8r	.	.	.
*	*	*v	*v	*	*	*	*	*	*
!!LO:LB:g=original
=5	=5	=5	=5	=5	=5	=5	=5	=5
*	*^	*	*	*	*	*	*	*
2F#/	1BB	1rGG	[>1f# 1d#	.	.	4dd#\	nie	w grze-	.
.	.	.	.	.	.	8cc#\	śmiem	-chach	.
.	.	.	.	.	.	8b\	po-	gi-	.
4B/	.	.	.	.	.	4.f#/	-glą-	-nie-	.
8F#/L	.	.	.	.	.	.	.	.	.
8B/J	.	.	.	.	.	8g#/	-dać	-my a	.
=6	=6	=6	=6	=6	=6	=6	=6	=6	=6
2c#/	2F#\	1rGG	1f#_> 1e	.	.	8.a#\	w głąb	są-	.
.	.	.	.	.	.	16b\	sa-	.	.
.	.	.	.	.	.	8.cc#\	-me-	-du	.
.	.	.	.	.	.	16a#/	-go	się	.
(<[>4A#/	(<2FF#\	.	.	.	.	4f#/	sie-	stra-	.
12A#/L]	.	.	.	.	.	8f#/	-bie.	-szymy	.
12G#/	.	.	.	.	.	.	.	.	.
.	.	.	.	.	.	8r	.	.	.
12F#/J	.	.	.	.	.	.	.	.	.
*	*v	*v	*	*	*	*	*	*	*
=7	=7	=7	=7	=7	=7	=7	=7	=7
*	*	*^	*	*	*	*	*	*
1F# 1BB	4BB\))	2.f#/]	1d#	.	.	4f#/	Ku	Bądź	.
.	4r	.	.	.	.	16g#/LL	To-	nam	.
.	.	.	.	.	.	16a#/JJ	.	.	.
.	.	.	.	.	.	16b/LL	-bie	mi-	.
.	.	.	.	.	.	16cc#/JJ	.	.	.
.	2rEE	.	.	.	.	4.dd#\	Bo-	-ło-	.
.	.	8.b/L	.	.	.	.	.	.	.
.	.	.	.	.	.	8b\	-że	-ściw	.
.	.	16f#/Jk	.	.	.	.	.	.	.
!!LO:LB:g=original
=8	=8	=8	=8	=8	=8	=8	=8	=8	=8
*	*^	*	*	*	*	*	*	*	*
2F#/	2C#\	1rEE	1f# 1e	2ryy	.	.	8.b\	rę-	od-	.
.	.	.	.	.	.	.	16a#/	-ce	-puść	.
.	.	.	.	.	.	.	8a#/	me	na-	.
.	.	.	.	.	.	.	8b/	po-	-sze	.
2ryy	2FF#/	.	.	2A#X\	.	.	4cc#/	-dno-	wi-	.
.	.	.	.	.	.	.	8f#/	-szę	-ny	.
.	.	.	.	.	.	.	8r	.	.	.
=9	=9	=9	=9	=9	=9	=9	=9	=9	=9	=9
*	*	*	*	*^	*	*	*	*	*	*
!	!	!	!LO:TX:t=P:problem=nuty wytarte	!	!	!	!	!	!	!	!LO:HP:a
(>2BB/	2ryy	1rEE	4ryy	4ryy	2An\	.	.	4dd#\	i	jak	<
.	.	.	8e/L	8e\L	.	.	.	8cc#\	wo-	od-	.
.	.	.	8f#/J	8f#\J	.	.	.	8dd#\	-łam	-pusz-	[
!	!	!	!	!LO:N:vis=1	!	!	!	!	!	!	!
(>4BB/)	[2EE/	.	2g#/	2e/ 2G#/	2ryy	.	.	4.ee^\	Oj-	-cza-	.
4BB#X/	.	.	.	.	.	.	.	.	.	.	.
.	.	.	.	.	.	.	.	8dd#\	-cze	-my	.
*	*	*	*	*v	*v	*	*	*	*	*	*
=10	=10	=10	=10	=10	=10	=10	=10	=10	=10	=10
4C#/	2EE/]	1rAAA	2.g#/	2G#\	.	.	8.cc#\	Któ-	wi-	.
.	.	.	.	.	.	.	16b\	-ry	-no-	.
4C##X/	.	.	.	.	.	.	8a#/	je-	-waj-	.
.	.	.	.	.	.	.	8g#/	-steś	-com	.
2D#/	2DD#/	.	.	4B\	.	.	4b/	w Nie-	na-	.
.	.	.	4f##X/	8d#\L	.	.	8a#/	-bie!	-szym	.
.	.	.	.	8c#\J	.	.	8r	.	.	.
*	*v	*v	*	*	*	*	*	*	*	*
*	*	*v	*v	*	*	*	*	*	*
!!LO:LB:g=original
=11	=11	=11	=11	=11	=11	=11	=11	=11
!	!	!LO:TX:b:i:t=ped.	!	!	!	!	!	!
*ped	*	*	*	*	*	*	*	*
!LO:N:vis=4.	!	!	!	!	!	!	!	!
4rG	1GG#	(>4g# 4B/	.	.	1r	.	.	.
(>2B (<2D#/	.	8b\L	.	.	.	.	.	.
.	.	8cc#\J	.	.	.	.	.	.
.	.	4.dd#\	.	.	.	.	.	.
4G#/))	.	.	.	.	.	.	.	.
.	.	8gg#\	.	.	.	.	.	.
=12	=12	=12	=12	=12	=12	=12	=12	=12
*	*^	*^	*	*	*	*	*	*
4rG	8ryy@	1GG#	8ff#\L	2ryy	.	.	1r	.	.	.
.	8ryy@	.	8ee\	.	.	.	.	.	.	.
2.B/	(>4E\	.	8b\	.	.	.	.	.	.	.
.	.	.	8cc#\J	.	.	.	.	.	.	.
.	4BB\	.	4.dd#/	4r	.	.	.	.	.	.
.	4D#\)	.	.	4d#\	.	.	.	.	.	.
.	.	.	8b/)	.	.	.	.	.	.	.
=13	=13	=13	=13	=13	=13	=13	=13	=13	=13	=13
2B/ 2G#/	2ryy	1rGG	(>2g#/	1d#	.	.	4g#/	Pa-	.	.
.	.	.	.	.	.	.	8b\	-trząc	.	.
.	.	.	.	.	.	.	8cc#\	na	.	.
2A#/ 2F##X/	2ryy	.	2a#X/	.	.	.	4.dd#\	cu-	.	.
.	.	.	.	.	.	.	8dd#\	-da	.	.
=14	=14	=14	=14	=14	=14	=14	=14	=14	=14	=14
!	!LO:TX:t=P::problem=dwa znaki przy nucie&colon;krzyżyk i kasowanik	!	!	!	!	!	!	!	!	!
4An/	2F#X\	1rEE	2.b#X/	2d#\	.	.	8dd#\	Two-	.	.
.	.	.	.	.	.	.	8dd#\	-jej	.	.
.	.	.	.	.	.	.	8qff#/	.	.	.
2.G#/	.	.	.	.	.	.	8.ee\	rę-	.	.
.	.	.	.	.	.	.	16dd#\	-ki	.	.
.	2E\	.	.	2c#\	.	.	4dd#\	świę-	.	.
.	.	.	4cc#/)	.	.	.	8cc#\	-tej,	.	.
.	.	.	.	.	.	.	8r	.	.	.
!!LO:LB:g=original
=15	=15	=15	=15	=15	=15	=15	=15	=15	=15	=15
1F#	2E\	1rAAA	2.a#/	2c#\	.	.	4cc#\	na	.	.
.	.	.	.	.	.	.	8dd#\	Two-	.	.
.	.	.	.	.	.	.	8ee\	-ją	.	.
.	2D#\	.	.	4.B\	.	.	4.ff#\	wiel-	.	.
.	.	.	[>4b/	.	.	.	.	.	.	.
.	.	.	.	8f#\	.	.	8b\	-kość	.	.
=16	=16	=16	=16	=16	=16	=16	=16	=16	=16	=16
2ryy	2Gn\	1rAAA	8b/L]	2e\	.	.	8b\	i	.	.
.	.	.	8a#/J	.	.	.	8a#\	nik-	.	.
.	.	.	(>2b/	.	.	.	8b\	-czem-	.	.
.	.	.	.	.	.	.	8cc#\	-ność	.	.
4F#/	2BB\	.	.	[<2d#\	.	.	4dd#\	mo-	.	.
4B/	.	.	4dd#/)	.	.	.	8dd#\	-ją	.	.
.	.	.	.	.	.	.	8r	.	.	.
=17	=17	=17	=17	=17	=17	=17	=17	=17	=17	=17
2A#/	(>4D#\	1rAAA	(>2f##X/	1d#]	.	.	(>4dd#\	wo-	.	.
.	4C#\	.	.	.	.	.	8.f##X/)	-łam	.	.
.	.	.	.	.	.	.	16f##/	stru-	.	.
2G#/	4BB\	.	2g#/)	.	.	.	[<4g#/	-chla-	.	.
!	!	!	!	!	!	!	!LO:TUP:b	!	!	!
.	4GG#\)	.	.	.	.	.	12g#/]	.	.	.
.	.	.	.	.	.	.	12a#/	-ły,	.	.
.	.	.	.	.	.	.	12b/	po-	.	.
*	*v	*v	*	*	*	*	*	*	*	*
!!LO:PB:g=original
=18	=18	=18	=18	=18	=18	=18	=18	=18	=18
(>4c# 4E\	1r	[>2.cc#/	4g#\	.	.	4cc#\	-dzi-	.	.
4A# 4D#\	.	.	4f##X\	.	.	8cc#\	-wem	.	.
.	.	.	.	.	.	8cc#\	prze-	.	.
4G# 4E\	.	.	4g#\	.	.	4.cc#\	-ję-	.	.
4F# 4AA#/)	.	8cc#/L]	4e\	.	.	.	.	.	.
*ped	*	*	*	*	*	*	*	*	*
.	.	8f##/J	.	.	.	8cc##X\	-ty:	.	.
*v	*v	*	*	*	*	*	*	*	*
=19	=19	=19	=19	=19	=19	=19	=19	=19
!	!LO:TX:b:i:t=ped.	!	!	!	!	!	!	!
1G# 1BB	(>2f#/	1d#	.	.	4dd#^\	święć	.	.
.	.	.	.	.	8.cc#\	się	.	.
.	.	.	.	.	16b\	Twe	.	.
.	4b/	.	.	.	4.b\	I-	.	.
.	4dd#/	.	.	.	.	.	.	.
.	.	.	.	.	8b\	-mie!	.	.
=20	=20	=20	=20	=20	=20	=20	=20	=20
*^	*	*	*	*	*	*	*	*
1Gn	2BB\	4ee/	1e	.	.	8.ee^\	przyjdź	.	.
.	.	.	.	.	.	16dd#\	Kró-	.	.
.	.	4gn/	.	.	.	8cc#\	-le-	.	.
.	.	.	.	.	.	8b#X\	-stwo	.	.
.	4AA#X\	2cc#/)	.	.	.	4.cc#\	Two-	.	.
.	4AAn\	.	.	.	.	.	.	.	.
.	.	.	.	.	.	8cc#\	-je!	.	.
!!LO:LB:g=original
=21	=21	=21	=21	=21	=21	=21	=21	=21	=21
(>2An/	[>2Dn\	2ccn/	4f#\	.	.	4ff#\	wo-	.	.
.	.	.	8gn\L	.	.	8ee,\	-łam	.	.
.	.	.	8an\J	4	.	8ddn\	stru-	.	.
4D/])	[<2GGn\	[>2b/	2B\	.	.	4.ggn\	-chla-	.	.
4D#X/	.	.	.	.	.	.	.	.	.
.	.	.	.	.	.	8ff#\	-ły	.	.
=22	=22	=22	=22	=22	=22	=22	=22	=22	=22
4E/	2GGn\]	2b/_>	2B\	.	.	8ee\	po-	.	.
.	.	.	.	.	.	8ddn\	-dzi-	.	.
4E#X/	.	.	.	.	.	8cc#,\	-wem	.	.
.	.	.	.	.	.	8b\	prze-	.	.
4F#/	4FF#\	4b/_>	(>4dn\	.	.	[>4b/	-ję-	.	.
4G#/	4EE#X\	12b/L]	4c##X\)	.	.	12b/L]	.	.	.
.	.	12a#/	.	.	.	12a#X/J	.	.	.
.	.	12g#/J	.	.	.	12g#/	-ty:	.	.
=23	=23	=23	=23	=23	=23	=23	=23	=23	=23
4F#/	2.FF#\	2.f#/	4d#X\	.	.	(<4f#/	Pa-	.	.
4E/	.	.	4c#\	.	.	8g#/)	.	.	.
.	.	.	.	.	.	8a#/	-nie!	.	.
2D#/	.	.	2B\	.	.	8.b/	przyjdź	.	.
.	.	.	.	.	.	16a#/	Kró-	.	.
!	!	!LO:TX:a:t=P:problem=poprawka głównego skryptora; pierwotnie był to dwudźwięk 4b 4d; d skreślone	!	!	!	!	!	!	!
.	4GG#\	4b/	.	.	.	8b/	-le-	.	.
.	.	.	.	.	.	8dd#\	-stwo	.	.
*v	*v	*	*	*	*	*	*	*	*
!!LO:LB:g=original
=24	=24	=24	=24	=24	=24	=24	=24	=24
!	!LO:TX:b:i:t=a tempo lento.	!	!	!	!	!	!	!
1F# 1FF#	(>4dd#/ 4f#	2ryy	.	.	1ff#	Two-	.	.
.	8cc#/L 4f#	.	.	.	.	.	.	.
.	8b/J 4d#	.	.	.	.	.	.	.
.	4g#/	8e\L	.	.	.	.	.	.
.	.	8c#\	.	.	.	.	.	.
.	4a#/	8f#\	.	.	.	.	.	.
.	.	8e\J	.	.	.	.	.	.
*	*v	*v	*	*	*	*	*	*
=25	=25	=25	=25	=25	=25	=25	=25
*^	*	*	*	*	*	*	*
(<4F#/	1BB	2b 2d#/)	.	.	4b\	-je.	.	.
8G#/L	.	.	.	.	4r	.	.	.
8A#/J	.	.	.	.	.	.	.	.
8B/L	.	2f#/	.	.	2r	.	.	.
8c#/	.	.	.	.	.	.	.	.
8d#/	.	.	.	.	.	.	.	.
8B/J)	.	.	.	.	.	.	.	.
=26	=26	=26	=26	=26	=26	=26	=26	=26
*	*	*^	*	*	*	*	*	*
2.F#/	1BB	(>4cc#/	1e	.	.	1r	.	.	.
.	.	8b/L	.	.	.	.	.	.	.
.	.	8a#/J	.	.	.	.	.	.	.
.	.	8g#/L	.	.	.	.	.	.	.
.	.	8f#/	.	.	.	.	.	.	.
[>4F#^</	.	8a#/	.	.	.	.	.	.	.
.	.	8g#/J)	.	.	.	.	.	.	.
=27	=27	=27	=27	=27	=27	=27	=27	=27	=27
(<4F#/]	1BB	2f#/	[>2d#\	.	.	1r	.	.	.
8G#/L	.	.	.	.	.	.	.	.	.
8A#/J	.	.	.	.	.	.	.	.	.
8B/L	.	2b/	8d#\L]	.	.	.	.	.	.
8c#/	.	.	8e\J	.	.	.	.	.	.
8d#/	.	.	4f#\	.	.	.	.	.	.
8B/J)	.	.	.	.	.	.	.	.	.
!!LO:LB:g=original
=28	=28	=28	=28	=28	=28	=28	=28	=28	=28
(>2G#/	1BB	(>4ee/	1e	.	.	1r	.	.	.
.	.	8dd#/L	.	.	.	.	.	.	.
.	.	8cc#/J	.	.	.	.	.	.	.
2Gn/)	.	8b/L	.	.	.	.	.	.	.
.	.	8a#/	.	.	.	.	.	.	.
.	.	8b/	.	.	.	.	.	.	.
.	.	8cc#/J	.	.	.	.	.	.	.
=29	=29	=29	=29	=29	=29	=29	=29	=29	=29
2F#/	4BB^<\	4.dd#/	2d#\	.	.	1r	.	.	.
.	8C#\L	.	.	.	.	.	.	.	.
.	8D#\J	8b/)	.	.	.	.	.	.	.
4G#/	8E\L	4b/	4.c#\	.	.	.	.	.	.
.	8D#\	.	.	.	.	.	.	.	.
[>4B/	8E\	4g#/	.	.	.	.	.	.	.
.	8E#X\J	.	8c##X\	.	.	.	.	.	.
=30	=30	=30	=30	=30	=30	=30	=30	=30	=30
*>B1	*>B1	*>B1	*>B1	*	*	*>B1	*	*	*
!	!	!	!	!	!	!LO:TX:a:t=P:problem=ta volta jest jednoczesnie voltą pierwszą i drugą	!	!	!
!	!	!	!	!	!	!LO:TX:a:i:t=1ma 2da	!	!	!
4B/]	(4F#\	4f#/	4d#\	.	.	1r	.	.	.
4r	4r)yy	4r	4r	.	.	.	.	.	.
!	!	!	!LO:N:vis=1	!	!	!	!	!	!
2FF#\	2C#/	2f#/	2e 2A#/	.	.	.	.	.	.
*	*	*v	*v	*	*	*	*	*	*
=31:|!	=31:|!	=31:|!	=31:|!	=31:|!	=31:|!	=31:|!	=31:|!	=31:|!
*>B3	*>B3	*>B3	*	*	*>B3	*	*	*
*	*	*^	*	*	*	*	*	*
!	!	!	!	!	!	!LO:TX:a:i:t=3tia	!	!	!
4B/	4F#\	4f#/	4d#\	.	.	1r	.	.	.
4r	4r	4r	4rb	.	.	.	.	.	.
2A# 2F#/	2FF#\	2cc#/	2e\	.	.	.	.	.	.
*	*	*v	*v	*	*	*	*	*	*
*v	*v	*	*	*	*	*	*	*
=32	=32	=32	=32	=32	=32	=32	=32
!LO:TX:b:i:t=S. Moniuszko. \n20/XII 67. \ndla Kochanego Franciszka Ciéślewskiego, na pamiątkę.	!	!	!	!	!	!	!
1B 1F# 1BB;>	1b 1d#;>	.	.	1r;>	.	.	.
==	==	==	==	==	==	==	==
*-	*-	*-	*-	*-	*-	*-	*-
!!!system-decoration: {(s1)(s2,s3)}
!!!RDF**kern: > = above
!!!RDF**kern: < = below
!!!EED: Antoni Szymański
!!!EEV: 2021-04-16
!!!ENC: Anastazja Marusiak
!!!END: 2021-03-30
!!!YEC: Copyright 2022 Narodowy Instytut Fryderyka Chopina (https://polishscores.org)
!!!YEM: License CC-BY-4.0 (https://creativecommons.org/licenses/by/4.0)
